X:1
T:The Fall
C:T. S. Macdonald
M:C|
L:1/8
K:A
E | A c>A c/d/e c2 | A>ce<a f>ef<a | A2 c>A c/d/e c2 | A>cB<G A2 A :|
{Bc}e | a>Ag>A f<Ag>A | (3aga (3fec e2 (3Ace | a<Ag>A f<Ag>A | (3aga (3bge f2 (3geA |
(3aAa (3gAg (3fAf (3gAg | (3aga (3bag (3fed (3cBA | (3dAf (3efg (3agf (3edB | A>FE<C A,2 A, |]

